X: 32015
T: Peerie Hoose Ahint Da Burn
R: reel
M: 4/4
K: Gmajor
D2|"G"GABc dB G2|"G"gagf "C"e2 dc|"G"BGBd "C"cABG|"Am"ABAG "D"E2D2|
"G"GABc dB G2|"G"gagf "C"e2 dc|"G"BGBd "D"cAFA|"G"G2 +GB++GB+ +G2B2+:|
g2|"D"fefg af d2|"G"gagf "C"e2 dc|"G"BGBd "C"cABG|"D"ABAG "D"E2 eg|
"D"f efg af d2|"G"gagf "C"e2dc|"G"BGBd "D"cAFA|"G"G2 GG G2 g2|
"D"fefg af d2|"G"gagf "C" e2 dc|"G"BGBd "C"cABG|"D"ABAG "D"E2 D2|
"G"GABc dB G2|"G"gagf "C"e2 dc|"G"BGBd "D"cAFA|"G"G2 +GB++GB++G2B2+||

